!!! OTL: Literature93
!!! Chapter: 5
!!! Section: III
!!! Page: 366
!!! Mode: 
!!! Encoder: DJB
**kern
*staff1
*I"Piano
=1-
*clefG2
*k[f#]
*G:
*M4/4
4r
4r
4r
8d/L
8g/J
=2
4b\
8g/L
8d/J
4c#/
8d/L
8g/J
=3
8b\L
8dd\J
[4cc\
8cc/L]
8b/
8g/
8a/J
=4
8b/L
8a/
8f#/
8g/J
8a/L
8g/
8e/
8f#/J
=5
2g/
4r
8d/L
8g/J
=6
4b\
8g/L
8d/J
4c#/
8d/L
8g/J
=7
!!linebreak:original
8b\L
8dd\J
[4cc\
8cc\L]
8b\
8dd\
8cc\J
=8
8b\L
8a\
8cc\
8b\J
8a/L
8g/
8b/
8a/J
=9
2f#/
4g/
4r
==
*-
